X:1
T:Title
%%score ( 1 2 ) { 3 | 4 }
L:1/8
Q:1/4=96
M:6/8
K:Eb
V:1 treble nm="Grand Piano, Soprano"
V:2 treble 
V:3 bass nm="Choir Pad, Under the Blood (Lanning)"
V:4 bass 
V:1
 z3 .G3 | .B3 z3 | [EG]3 [DF]E[DF] | [EG]3 [DF]3 | [EG]2 [EG] [EG][EF][EG] | [DB][Dc][DB] [EG]2 E | %6
 [EG]3 [DF]E[B,F] | [B,E]3- [B,E]3/2 z/ [GB] | [Ge]3 [Ad][Ac][AB] | [Gc]2 [GB] [GB]<[EG]E | %10
 [EG]3 [DF][CE][DF] | [EG]3 [DF]3 | [Ge]2 [Ge] [Ac]2 [GB] | [Ac]2 [GB] [GB]2 E | [EG]3 [DF]E[B,F] | %15
 [B,E]6- | [B,E]3 z3 |] %17
V:2
 [EG]2 [EG] E-[EF][EG] | D-[Dc][DB] [EG]2 E | x6 | x6 | x6 | x6 | x6 | x6 | x6 | x6 | x6 | x6 | %12
 x6 | x6 | x6 | x6 | x6 |] %17
V:3
 B,2 B, B,2 B, | B,2 B, B,2 G, | B,3 A,G,B, | B,6 | B,2 B, B,B,B, | B,B,B, B,2 G, | B,3 A,G,A, | %7
 G,3- G,3/2 z/ B, | B,3 B,[K:treble]CD | E2 E E<[K:bass]B,B, | B,3 B,B,B, | B,6 | %12
 B,2 B,[K:treble] E2 E | E2 E E2[K:bass] B, | B,3 A,G,A, | G,6- | G,3 z3 |] %17
V:4
 E,2 E, E,2 E, | B,,2 B,, E,2 E, | B,,3 B,,B,,B,, | B,,6 | E,2 E, E,E,E, | B,,B,,B,, E,2 E, | %6
 B,,3 B,,B,,B,, | E,3- E,3/2 z/ E, | E,3 F,F,B,, | E,2 E, E,<E,G, | z3 B,,B,,B,, | B,,6 | %12
 E,2 E, E,2 E, | E,2 E, E,2 G, | z3 B,,B,,B,, | E,6- | E,3 z3 |] %17

